usr/share/icons/biglinux-icons-material/22/actions/tools-wizard.svg

<svg version="1.1" viewBox="0 0 22 22" xmlns="http://www.w3.org/2000/svg">
 <defs>
  <style id="current-color-scheme" type="text/css">.ColorScheme-Text {
        color:#dedede;
      }</style>
 </defs>
 <path class="ColorScheme-Text" d="M 4.5,3 3.96875,3.96875 3,4.5 3.96875,5.03125 4.5,6 5.03125,5.03125 6,4.5 5.03125,3.96875 Z M 9.5,3 8.96875,3.96875 8,4.5 8.96875,5.03125 9.5,6 10.03125,5.03125 11,4.5 10.03125,3.96875 Z M 6.5,7 5.96875,7.96875 5,8.5 5.96875,9.03125 6.5,10 7.03125,9.03125 8,8.5 7.03125,7.96875 Z" fill="currentColor"/>
 <path class="ColorScheme-Text" d="m17.364 4.636c-0.78347-0.78347-2.045-0.78347-2.8284 6e-7l-9.8996 9.8996c-0.78347 0.78348-0.78347 2.045 0 2.8284 0.78347 0.78348 2.045 0.78348 2.8284 0l9.8996-9.8996c0.78348-0.78347 0.78348-2.045 0-2.8284zm-0.70711 0.70711c0.39174 0.39174 0.39174 1.0225 0 1.4142l-2.8284 2.8284-1.4142-1.4142 2.8284-2.8284c0.39174-0.39174 1.0225-0.39174 1.4142-3e-7zm-4.9497 3.5355 1.4142 1.4142-6.364 6.364c-0.39174 0.39174-1.0225 0.39174-1.4142 0-0.39174-0.39174-0.39174-1.0225 1e-6 -1.4142z" fill="currentColor"/>
</svg>

<svg xmlns="http://www.w3.org/2000/svg" viewBox="0 0 22 22"><defs><style id="current-color-scheme" type="text/css">.ColorScheme-Text{color:#dedede}</style></defs><path fill="currentColor" d="m4.5 3-.531.969L3 4.5l.969.531L4.5 6l.531-.969L6 4.5l-.969-.531Zm5 0-.531.969L8 4.5l.969.531L9.5 6l.531-.969L11 4.5l-.969-.531Zm-3 4-.531.969L5 8.5l.969.531L6.5 10l.531-.969L8 8.5l-.969-.531ZM17.364 4.636a1.996 1.996 0 0 0-2.828 0l-9.9 9.9a1.996 1.996 0 0 0 0 2.828 1.996 1.996 0 0 0 2.828 0l9.9-9.9a1.996 1.996 0 0 0 0-2.828zm-.707.707a.998.998 0 0 1 0 1.414l-2.829 2.829-1.414-1.414 2.829-2.829a.998.998 0 0 1 1.414 0zm-4.95 3.536 1.414 1.414-6.364 6.364a.998.998 0 0 1-1.414 0 .998.998 0 0 1 0-1.414z" class="ColorScheme-Text"/></svg>
